!!!COM: Corelli, Arcangelo
!!!OTL: 
!!!ONM: Opus 6, No. 11
!!!OMV: 6
!!!CDT: 1653/2/17/-1713/1/8/
!!!OCY: Italia
**kern
*clefC
*k[b-]
*d:
*M2/4
4.r
8r
=1
4B-
.
4BB-
.
=2
4F
8r
8D
=3
4E-
.
8r
8E-
=4
4D
.
8r
8D
=5
8G
8A
8B-
8G
=6
4c
.
8r
8E
=7
8F
8B-
8c
8C
=8
4F
.
8r
8d
=9
4e-
.
8r
8e-
=10
4d
.
8r
8d
=11
4c
.
4F
.
=12
4B-
.
8r
8D
=13
4E-
.
8r
8E-
=14
4E-
8D
8E-
=15
4F
.
4FF
.
=16
4BB-
8r
8d
=17
4e-
.
8r
8e-
=18
4d
.
8r
8d
=19
4c
.
4F
.
=20
4B-
.
8r
8D
=21
4E-
.
8r
8E-
=22
4E-
.
8D
8E-
=23
4F
4FF
.
=24
4BB-
.
8r
8G
=25
4F#
.
8r
8G
=26
4F#
.
8r
8F#
=27
8G
8C
8D
8DD
=28
4GG
8r
8c
=29
4B
.
4c
=30
4B
8r
8B
=31
8c
8F
8G
8GG
=32
8C
8c
8B
8G
=33
8r
8c
8B
8G
=34
8r
8c
8B
8G
=35
4c
4B-
.
=36
4A
.
8r
8F
=37
8G
8D
8A
8AA
=38
4D
.
4F#
.
=39
4G
.
8r
8G
=40
4A
.
8r
8C#
=41
8D
8GG
4AA
.
=42
2DD
.
.
=43
4B-
.
4BB-
.
=44
4F
.
8r
8D
=45
4E-
.
8r
8E-
=46
4D
.
8r
8D
=47
8G
8A
8B-
8G
=48
4c
.
8r
8E
=49
8F
8B-
8c
8C
=50
4F
.
8r
8d
=51
4e-
8r
8e-
=52
4d
.
8r
8d
=53
4c
.
4F
=54
4B-
.
8r
8D
=55
4E-
.
8r
8E-
=56
4E-
8D
8E-
=57
4F
.
4FF
.
=58
4BB-
.
8r
8d
=59
4e-
8r
8e-
=60
4d
.
8r
8d
=61
4c
.
4F
.
=62
4B-
.
8r
8D
=63
4E-
.
8r
8E-
=64
4E-
.
8D
8E-
=65
4F
4FF
.
=66
4BB-
.
[4E-
=67
4E-]
.
4D
.
=68
4E-
.
4F
.
=69
4.BB-
.
.
8r
==
*-
!!!RWG: This file only contains pitch and duration data.
!!!RWG: Transposing instruments are not transposed.
!!!RWG: Durations of rests and tied notes may be interpreted.
!!!RWG: This file only contains pitch and duration data.
!!!RWG: Transposing instruments are not transposed.
!!!RWG: Durations of rests and tied notes may be interpreted.
!!!RWG: Key is interpreted using the Humdrum key tool.
!!!SCA: 
!!!YOR: Chrysander Edition
!!!AGN: concerto grosso
!!!AFT: stage1
!!!ENC: F. Bennion
!!!END: 1997/04/15
!!!AST: baroque
!!!YEC: Copyright 1994, Center for Computer Assisted Research in the Humanities
!!!YEM: Rights to all derivative electronic formats reserved.
!!!YEM: Refer to licensing agreement for further details.
!!!YEN: United States of America
!!!EED: W.B. Hewlett
!!!KEY: 84148409
!!!EMD: Converted from MuseData to Humdrum Aug 2, 1999, by Bret Aarden using muse2kern.
!!!VTS: 3441246016
